icons/Finance/exchange-funds-line.svg

<svg viewBox="0 0 24 24" xmlns="http://www.w3.org/2000/svg"><path d="M19.3788 15.1057C20.9258 11.442 19.5373 7.11425 16.0042 5.07444C13.4511 3.6004 10.4232 3.69359 8.03452 5.05554L7.04216 3.31873C10.028 1.61633 13.8128 1.49984 17.0042 3.34239C21.4949 5.93507 23.2139 11.4848 21.1217 16.1119L22.4635 16.8866L18.2984 19.1007L18.1334 14.3866L19.3788 15.1057ZM4.62961 8.89962C3.08263 12.5633 4.47116 16.891 8.00421 18.9308C10.5573 20.4049 13.5851 20.3117 15.9737 18.9499L16.9661 20.6866C13.9803 22.389 10.1956 22.5054 7.00421 20.6629C2.51357 18.0702 0.794565 12.5205 2.88672 7.89336L1.54492 7.11867L5.70999 4.90457L5.87505 9.61867L4.62961 8.89962ZM13.4184 14.8311L10.59 12.0026L7.76157 14.8311L6.34736 13.4169L10.59 9.17422L13.4184 12.0026L16.2469 9.17422L17.6611 10.5884L13.4184 14.8311Z"/></svg>

<svg xmlns="http://www.w3.org/2000/svg" viewBox="0 0 24 24">
    <g>
        <path fill="none" d="M0 0h24v24H0z"/>
        <path d="M19.375 15.103A8.001 8.001 0 0 0 8.03 5.053l-.992-1.737A9.996 9.996 0 0 1 17 3.34c4.49 2.592 6.21 8.142 4.117 12.77l1.342.774-4.165 2.214-.165-4.714 1.246.719zM4.625 8.897a8.001 8.001 0 0 0 11.345 10.05l.992 1.737A9.996 9.996 0 0 1 7 20.66C2.51 18.068.79 12.518 2.883 7.89L1.54 7.117l4.165-2.214.165 4.714-1.246-.719zm8.79 5.931L10.584 12l-2.828 2.828-1.414-1.414 4.243-4.242L13.414 12l2.829-2.828 1.414 1.414-4.243 4.242z"/>
    </g>
</svg>
